X:1
T:Himmel, 87.87 D
T:Himmel, 87.87 D
T:Friedrich Heinrich Himmel (1765-1814)
T:Public Domain Courtesy of the Cyber Hymnal™
C:Friedrich Heinrich Himmel (1765-1814)
Z:Public Domain
Z:Courtesy of the Cyber Hymnal™
%%score ( 1 2 ) ( 3 4 )
L:1/8
Q:1/4=90
M:6/8
K:Bb
V:1 treble 
V:2 treble 
V:3 bass 
V:4 bass 
V:1
 [Fd]2 [DB] | [DF]2 [DF] (F>G)[EF] | [DF]2 [B,D] (FB)[FA] | [EG]2 G (Gc)[GB] | [FA]3 [Fd]2 [DB] | %5
 [DF]2 [DF] (F>G)[EF] | [DF]2 [B,D] (BA)[FG] | [FA]2 [FA] (cB)[_EG] | F3 (FB)[F_A] | %9
 G2 [_DG] ([CG][Gc])[GB] | A2 [EA] ([DA][Ad])[Ac] | B2 [FB] (Be)[Ed] | [Ec]3 [Dd]2 [EB] | %13
 [DF]2 [DF] (F>G)[EF] | [DF]2 [B,D] [FB]2 [Gc] | (d>c)[FB] (Bc)[EA] | [DB]3 |] %17
V:2
 x3 | x3 E2 x | x3 F2 x | x2 G G2 x | x6 | x3 E2 x | x3 F2 x | x3 =E2 x | F3 F2 x | (FE) x4 | %10
 (GF) x4 | (AG) E2 x2 | x6 | x3 E2 x | x6 | F2 F2 x2 | x3 |] %17
V:3
 [B,,B,]2 [B,,F,] | [B,,B,]2 [B,,B,] [A,,D]2 [A,,D] | [B,,B,]2 [B,,F,] [D,B,]2 [D,B,] | %3
 (B,E)[_E,D] [=E,C]2 [E,C] | [F,C]3 [B,,B,]2 [B,,F,] | [B,,B,]2 [B,,B,] [A,,C]2 [A,,C] | %6
 [B,,B,]2 [B,,F,] ([D,B,][C,C])[=B,,D] | [C,C]2 [C,C] [C,G,]2 [C,B,] | [F,A,]3 [D,B,]2 [D,B,] | %9
 [E,B,]2 [E,B,] (B,G,)[_E,C] | [F,C]2 [F,C] (CA,)[=F,D] | [G,D]2 [G,D] [G,B,]2 [C,B,] | %12
 [F,A,]3 [B,,F,]2 [B,,G,] | [B,,F,]2 [B,,B,] [A,,C]2 [A,,C] | [B,,B,]2 [B,,F,] [D,B,]2 [E,B,] | %15
 (B,>C)[F,D] (DE)[F,C] | [B,,B,]3 |] %17
V:4
 x3 | x6 | x6 | =E,2 x4 | x6 | x6 | x6 | x6 | x6 | x3 =E,2 x | x3 ^F,2 x | x6 | x6 | x6 | x6 | %15
 F,2 F,2 x2 | x3 |] %17

